X:21
T:Cuzle together
R:slip jig
C:traditional, highland pipe tune
B:Bremner's Collections, 1757
N:melodic code  355 357b
L:1/8
M:9/8
Q:333
K:Amix
Tc2 (e e)cf Te2 A|Tc2 (e e)ce g2 B|Tc2 (e e)ce aeg|fdf ece g2 B:|
|:a2 (a a)ec a2 e|a2 (a a)ec g2 B|a2 (a a)ec aeg|fdf ece g2 B:|
